X:4
T:Inis Oirr
M:3/4
L:1/8
R:air
C:Thomas Walsh
N:Learned from Frank Simpson, Solstice Festival 2000
K:G
E ED|:B3A Bd|{A}B3A Bd|{D}E3B AB|D3B AG|
B3A Bd|{A}B3A Bd|{F}G3B A/G/F|1 {A}G3E ED:|2 {A}G3A Bd|
e3f ed|{A}B3A Bd|ef ed B/c/d|e4 Bd|
e3f ed|{A}B3A Bd|{F}G3B A/G/F|G3A Bd|
e3f ed|{A}B3A Bd|gf ed B/c/d|e4 Bd|
e3f ed|{A}B3A Bd|{F}G3B A/G/F|G6||
